docs/icons/stroke_peers_small.svg

<svg xmlns="http://www.w3.org/2000/svg" viewBox="0 0 19.9 18.8"><path d="M14.9 10.7c-.4 0-.8.1-1.1.2l-2.3-3.6c.7-.6 1.2-1.5 1.2-2.5 0-1.7-1.4-3.1-3.1-3.1-1.7 0-3.1 1.4-3.1 3.1 0 1 .5 1.9 1.2 2.5L6 10.9c-.3-.1-.6-.2-1-.2-1.7 0-3.1 1.4-3.1 3.1S3.2 17 5 17c1.7 0 3.1-1.4 3.1-3.1 0-1.2-.7-2.2-1.6-2.7l1.7-3.5c.4.2.9.3 1.4.3.5 0 1-.1 1.4-.4l2.3 3.6c-.9.6-1.5 1.5-1.5 2.6 0 1.7 1.4 3.1 3.1 3.1 1.7 0 3.1-1.4 3.1-3.1s-1.3-3.1-3.1-3.1zm-7.4 3.2c0 1.4-1.1 2.5-2.5 2.5s-2.5-1.1-2.5-2.5 1.1-2.5 2.5-2.5c1.4-.1 2.5 1.1 2.5 2.5zm2.1-6.5C8.2 7.4 7 6.3 7 4.9s1.1-2.5 2.5-2.5S12 3.5 12 4.9c.1 1.4-1 2.5-2.4 2.5zm7.7 5.5L16 16.2c-.2.1-.4.2-.6.2l1.6-4c.1.2.2.3.3.5zm-2.4-1.6h.4L13.6 16c-.1-.1-.3-.2-.4-.3l1.7-4.4c0 .1 0 0 0 0zm.8.2c.2 0 .3.1.4.2l-1.9 4.7c-.2 0-.3-.1-.4-.2l1.9-4.7zm-2.1.3l-1.1 2.7c0-.2-.1-.4-.1-.6 0-.9.5-1.7 1.2-2.1zm-1 3.1l1.3-3.4c.2-.1.4-.1.6-.2l-1.6 4.1c-.1-.1-.2-.3-.3-.5zm2 1.5l1.8-4.6c.1.1.3.2.4.3l-1.7 4.3h-.5zm1.8-.4l1-2.6c0 .2.1.3.1.5 0 .8-.4 1.6-1.1 2.1z"/></svg>

<?xml version="1.0" encoding="utf-8"?>
<svg version="1.1" xmlns="http://www.w3.org/2000/svg" xmlns:xlink="http://www.w3.org/1999/xlink" viewBox="0 0 19.9 18.8" xml:space="preserve">
<path d="M14.9,10.7c-0.4,0-0.8,0.1-1.1,0.2l-2.3-3.6c0.7-0.6,1.2-1.5,1.2-2.5c0-1.7-1.4-3.1-3.1-3.1c-1.7,0-3.1,1.4-3.1,3.1
	c0,1,0.5,1.9,1.2,2.5l-1.7,3.6c-0.3-0.1-0.6-0.2-1-0.2c-1.7,0-3.1,1.4-3.1,3.1S3.2,17,5,17c1.7,0,3.1-1.4,3.1-3.1
	c0-1.2-0.7-2.2-1.6-2.7l1.7-3.5C8.6,7.9,9.1,8,9.6,8c0.5,0,1-0.1,1.4-0.4l2.3,3.6c-0.9,0.6-1.5,1.5-1.5,2.6c0,1.7,1.4,3.1,3.1,3.1
	c1.7,0,3.1-1.4,3.1-3.1S16.7,10.7,14.9,10.7z M7.5,13.9c0,1.4-1.1,2.5-2.5,2.5c-1.4,0-2.5-1.1-2.5-2.5s1.1-2.5,2.5-2.5
	C6.4,11.3,7.5,12.5,7.5,13.9z M9.6,7.4C8.2,7.4,7,6.3,7,4.9c0-1.4,1.1-2.5,2.5-2.5c1.4,0,2.5,1.1,2.5,2.5C12.1,6.3,11,7.4,9.6,7.4z
	 M17.3,12.9L16,16.2c-0.2,0.1-0.4,0.2-0.6,0.2l1.6-4C17.1,12.6,17.2,12.7,17.3,12.9z M14.9,11.3c0.2,0,0.3,0,0.4,0L13.6,16
	c-0.1-0.1-0.3-0.2-0.4-0.3L14.9,11.3C14.9,11.4,14.9,11.3,14.9,11.3z M15.7,11.5c0.2,0,0.3,0.1,0.4,0.2l-1.9,4.7
	c-0.2,0-0.3-0.1-0.4-0.2L15.7,11.5z M13.6,11.8l-1.1,2.7c0-0.2-0.1-0.4-0.1-0.6C12.4,13,12.9,12.2,13.6,11.8z M12.6,14.9l1.3-3.4
	c0.2-0.1,0.4-0.1,0.6-0.2l-1.6,4.1C12.8,15.3,12.7,15.1,12.6,14.9z M14.6,16.4l1.8-4.6c0.1,0.1,0.3,0.2,0.4,0.3l-1.7,4.3
	c0,0-0.1,0-0.1,0C14.8,16.4,14.7,16.4,14.6,16.4z M16.4,16l1-2.6c0,0.2,0.1,0.3,0.1,0.5C17.5,14.7,17.1,15.5,16.4,16z"/>
</svg>
